X:96
T:Untitled. JBs.096
S:Jas.Blackshaw MS, 1837, N.Shropshire
A:North Shropshire
Z:T. Weatherall 2006
M:4/4
L:1/8
Q:150
R:March
K:C
câ€™4g4|eggg eggg|câ€™gcâ€™g câ€™gec|g2g>gg2z2|g3g agfe|!
de/f/ g/a/b/câ€™/ dâ€™4|f3fgfed|cd/e/ f/g/a/b/ câ€™2z2|g8|!
a8|gcâ€™/câ€™/ câ€™câ€™ bb/b/bb|câ€™2câ€™câ€™câ€™2z2:|!
|:a2a>a a3b|câ€™ba^g a3b|câ€™câ€™câ€™b aaab|câ€™2b2a2z2|!
g2gg g2câ€™g|g2gg g2z2|g2ggg2câ€™g|g2ggg2 ((3gab)|!
câ€™bcâ€™b g^fge|fgabcâ€™2g2|a2dâ€™2câ€™2b2|câ€™2câ€™câ€™câ€™2z2:|

